!!!!SEGMENT:38Benibana_c.krn
!!!OTL: 亂花
!!!OPR:Eiga Banso Kyokusyu,jidai-geki,zenpen
!!!YOY:1929
!!!ONB:Haikei
**kern
*clefG2
*C:
*M2/4
=1
4ff#
4ff#
=2
4ff#
4ff#
=3
4ff#
8ff#L
8ff#J
=4
4ff#
4r
=5
8ggL
8gg
8gg
8ggJ
=6
8ff#L
8ff#
8gg
8ff#J
=7
8eeL
8ee
8ff#
8eeJ
=8
4cc
4r
=9
8eeL
8ee
8ff#
8eeJ
=10
4cc
4b
=11
8aL
8a
8b
8aJ
=12
4fn
4e
=13
8eeL
8ee
8ff#
8eeJ
=14
4cc
4b
=15
8aL
8a
8b
8aJ
=16
4fn
8eeL
8eeJ
=17
8ff#L
8eeJ
4cc
=18
8eeL
8ee
8ff#
8eeJ
=19
4cc
8ff#L
8eeJ
=20
4cc
8ff#L
8eeJ
=21
4cc
8ff#L
8ff#J
=22
8eeL
(8ccJ
4b
=23
4cc)
(4b
=24
4cc
4b)
=25
8eL
8ccJ
4b^
=26
4b^
4r
==
*-
!!!ENC: Yukiko Yoden
!!!END: 2023/06/11
